icons/sonnet.svg

<svg width="32" height="32" viewBox="0 0 32 32" fill="none" xmlns="http://www.w3.org/2000/svg">
<g clip-path="url(#clip0_29_495)">
<path d="M3.33333 28.6667C0.866667 26.2 0 22.2 0 16C0 9.8 0.933333 5.8 3.33333 3.33333C5.73333 0.866667 9.8 0 16 0C22.2 0 26.2 0.933333 28.6667 3.33333C31.1333 5.73333 32 9.8 32 16C32 22.2 31.0667 26.2 28.6667 28.6667C26.2667 31.1333 22.2 32 16 32C9.8 32 5.8 31.0667 3.33333 28.6667Z" fill="#004A93"/>
<path d="M16 28.6666C22.9956 28.6666 28.6667 22.9956 28.6667 16C28.6667 9.00437 22.9956 3.33331 16 3.33331C9.0044 3.33331 3.33334 9.00437 3.33334 16C3.33334 22.9956 9.0044 28.6666 16 28.6666Z" fill="#FFCE00"/>
<path d="M19.3334 6.73329C19.2 6.66662 19 6.66662 18.8667 6.73329C18.7333 6.79996 18.6 6.93329 18.5333 7.06662C18.4667 7.19996 18.4667 7.39996 18.5333 7.53329C18.6 7.66662 18.7333 7.79996 18.8667 7.86662C22.0667 9.19996 24.1334 12.2666 24.1334 15.7333C24.1334 20.4666 20.3333 24.2666 15.6 24.2666C15.2667 24.2666 14.9333 24.5333 14.9333 24.9333C14.9333 25.3333 15.2 25.6 15.6 25.6C21 25.6 25.4 21.2 25.4 15.8C25.4 11.8 23.0667 8.26662 19.3334 6.73329Z" fill="#004A93"/>
<path d="M15.6 22.2C19.1333 22.2 22.0667 19.3333 22.0667 15.7333C22.0667 12.1333 19.2 9.33331 15.6 9.33331C15.2667 9.33331 14.9333 9.59998 14.9333 9.99998C14.9333 10.3333 15.2 10.6666 15.6 10.6666C18.4667 10.6666 20.7334 13 20.7334 15.8C20.7334 18.6 18.4 20.9333 15.6 20.9333C15.2667 20.9333 14.9333 21.2 14.9333 21.6C15 21.9333 15.2667 22.2 15.6 22.2Z" fill="#004A93"/>
<path d="M16.9333 17.2666C16.8 17.4 16.7334 17.5333 16.7334 17.7333C16.7334 17.9333 16.8 18.0666 16.9333 18.2C17.0667 18.3333 17.2 18.4 17.4 18.4C17.5334 18.4 17.7334 18.3333 17.8 18.2C18.4667 17.6 18.8 16.7333 18.8 15.8666C18.8 14.0666 17.3333 12.6 15.6 12.6C15.2667 12.6 14.9333 12.8666 14.9333 13.2666C14.9333 13.6666 15.2 13.9333 15.6 13.9333C16.6667 13.9333 17.5333 14.8 17.5333 15.8666C17.6 16.3333 17.4 16.8666 16.9333 17.2666Z" fill="#004A93"/>
</g>
<defs>
<clipPath id="clip0_29_495">
<rect width="32" height="32" fill="white"/>
</clipPath>
</defs>
</svg>

<svg xmlns="http://www.w3.org/2000/svg" width="32" height="32" fill="none" viewBox="0 0 32 32">
  <g clip-path="url(#a)">
    <path fill="#004A93" d="M3.333 28.667C.867 26.2 0 22.2 0 16S.933 5.8 3.333 3.333C5.733.867 9.8 0 16 0s10.2.933 12.667 3.333C31.133 5.733 32 9.8 32 16s-.933 10.2-3.333 12.667C26.267 31.133 22.2 32 16 32s-10.2-.933-12.667-3.333Z"/>
    <path fill="#FFCE00" d="M16 28.667c6.996 0 12.667-5.672 12.667-12.667 0-6.996-5.671-12.667-12.667-12.667C9.004 3.333 3.333 9.004 3.333 16c0 6.995 5.671 12.667 12.667 12.667Z"/>
    <path fill="#004A93" d="M19.333 6.733a.57.57 0 0 0-.466 0 .803.803 0 0 0-.334.334.57.57 0 0 0 0 .466c.067.134.2.267.334.334 3.2 1.333 5.266 4.4 5.266 7.866 0 4.734-3.8 8.534-8.533 8.534a.668.668 0 0 0-.667.666c0 .4.267.667.667.667 5.4 0 9.8-4.4 9.8-9.8 0-4-2.333-7.533-6.067-9.067Z"/>
    <path fill="#004A93" d="M15.6 22.2c3.533 0 6.467-2.867 6.467-6.467 0-3.6-2.867-6.4-6.467-6.4a.668.668 0 0 0-.667.667c0 .333.267.667.667.667 2.867 0 5.133 2.333 5.133 5.133S18.4 20.933 15.6 20.933a.668.668 0 0 0-.667.667c.067.333.334.6.667.6Z"/>
    <path fill="#004A93" d="M16.933 17.267a.605.605 0 0 0-.2.466c0 .2.067.334.2.467.134.133.267.2.467.2.133 0 .333-.067.4-.2.667-.6 1-1.467 1-2.333 0-1.8-1.467-3.267-3.2-3.267a.668.668 0 0 0-.667.667c0 .4.267.666.667.666 1.067 0 1.933.867 1.933 1.934.067.466-.133 1-.6 1.4Z"/>
  </g>
  <defs>
    <clipPath id="a">
      <path fill="#fff" d="M0 0h32v32H0z"/>
    </clipPath>
  </defs>
</svg>
